svg/shape/spade_line.svg

<?xml version="1.0" encoding="UTF-8"?>
<svg width="24px" height="24px" viewBox="0 0 24 24" version="1.1" xmlns="http://www.w3.org/2000/svg" xmlns:xlink="http://www.w3.org/1999/xlink">
    <title>spade_line</title>
    <g id="Icon" stroke="none" stroke-width="1" fill="none" fill-rule="evenodd">
        <g id="Shape" transform="translate(-576.000000, 0.000000)">
            <g id="spade_line" transform="translate(576.000000, 0.000000)">
                <path d="M24,0 L24,24 L0,24 L0,0 L24,0 Z M12.5935,23.2578 L12.5819,23.2595 L12.5109,23.295 L12.4919,23.2987 L12.4767,23.295 L12.4057,23.2595 C12.3958,23.2564 12.387,23.259 12.3821,23.2649 L12.378,23.2758 L12.3609,23.7031 L12.3659,23.7235 L12.3769,23.7357 L12.4805,23.8097 L12.4953,23.8136 L12.5071,23.8097 L12.6107,23.7357 L12.6233,23.7197 L12.6267,23.7031 L12.6096,23.2758 C12.6076,23.2657 12.601,23.2593 12.5935,23.2578 Z M12.8584,23.1453 L12.8445,23.1473 L12.6598,23.2397 L12.6499,23.2499 L12.6472,23.2611 L12.6651,23.6906 L12.6699,23.7034 L12.6784,23.7105 L12.8793,23.8032 C12.8914,23.8069 12.9022,23.803 12.9078,23.7952 L12.9118,23.7812 L12.8777,23.1665 C12.8753,23.1546 12.8674,23.147 12.8584,23.1453 Z M12.143,23.1473 C12.1332,23.1424 12.1222,23.1453 12.1156,23.1526 L12.1099,23.1665 L12.0758,23.7812 C12.0751,23.7927 12.0828,23.8019 12.0926,23.8046 L12.1083,23.8032 L12.3092,23.7105 L12.3186,23.7024 L12.3225,23.6906 L12.3404,23.2611 L12.3372,23.2485 L12.3278,23.2397 L12.143,23.1473 Z" id="MingCute" fill-rule="nonzero"></path>
                <path d="M13.2187,3.30352 C13.441,3.45028 13.7127,3.62959 14.1103,3.86077 C18.3791,6.34234 20.9245,9.17011 20.9981,12.4029 C21.0475,14.5695 20.1153,16.4703 18.6991,17.6692 C17.7212,18.497 16.4912,19.002 15.2015,19.0007 C15.3991,19.5773 15.6183,20.0868 15.8575,20.4855 C16.0429,20.7944 16.0477,21.1792 15.8702,21.4927 C15.6927,21.8062 15.3603,22 15.0000004,22 L9.00000036,22 C8.63973,22 8.30731,21.8062 8.1298,21.4927 C7.9523,21.1792 7.95715,20.7944 8.14251,20.4855 C8.38174,20.0868 8.6009,19.5773 8.79848,19.0007 C7.50878,19.002 6.27877,18.497 5.30089,17.6692 C3.8847,16.4703 2.95251,14.5695 3.00187,12.4029 C3.07552,9.17011 5.62095,6.34234 9.88968,3.86077 C10.2874,3.62959 10.559,3.45029 10.7813,3.30352 C11.1533,3.05792 11.5354,2.80632 12.0000004,2.80632 C12.4645,2.80632 12.8467,3.05794 13.2187,3.30352 Z M10.8948,5.58983 C6.75224,7.99808 5.04972,10.3253 5.00135,12.4484 C4.9658,14.0088 5.63623,15.3326 6.59314,16.1427 C7.54836,16.9514 8.744,17.2231 9.84964,16.8043 C10.1972,16.6726 10.5891,16.7446 10.8672,16.9911 C11.1453,17.2376 11.2638,17.618 11.1748,17.9788 C11.009,18.6512 10.8084,19.3471 10.5651,20 L13.4349,20 C13.1916,19.3471 12.991,18.6512 12.8252,17.9788 C12.7362,17.618 12.8547,17.2376 13.1328,16.9911 C13.4109,16.7446 13.8028,16.6726 14.1504,16.8043 C15.256,17.2231 16.4516,16.9514 17.4069,16.1427 C18.3638,15.3326 19.0342,14.0088 18.9987,12.4484 C18.9503,10.3253 17.2478,7.99808 13.1052,5.58983 C12.5768,5.28266 12.2207,5.04032 12.0000006,4.89571 C11.7793,5.04032 11.4232,5.28266 10.8948,5.58983 Z" id="形状" fill="#09244B"></path>
            </g>
        </g>
    </g>
</svg>

<svg xmlns="http://www.w3.org/2000/svg" width="24" height="24"><g fill="none" fill-rule="evenodd"><path d="M24 0v24H0V0h24ZM12.594 23.258l-.012.002-.071.035-.02.004-.014-.004-.071-.036c-.01-.003-.019 0-.024.006l-.004.01-.017.428.005.02.01.013.104.074.015.004.012-.004.104-.074.012-.016.004-.017-.017-.427c-.002-.01-.009-.017-.016-.018Zm.264-.113-.014.002-.184.093-.01.01-.003.011.018.43.005.012.008.008.201.092c.012.004.023 0 .029-.008l.004-.014-.034-.614c-.003-.012-.01-.02-.02-.022Zm-.715.002a.023.023 0 0 0-.027.006l-.006.014-.034.614c0 .012.007.02.017.024l.015-.002.201-.093.01-.008.003-.011.018-.43-.003-.012-.01-.01-.184-.092Z"/><path fill="#09244B" d="M13.219 3.304c.222.146.494.326.891.557 4.27 2.481 6.814 5.31 6.888 8.542.05 2.166-.883 4.067-2.299 5.266-.978.828-2.208 1.333-3.498 1.332.198.576.417 1.086.656 1.484A1 1 0 0 1 15 22H9a1 1 0 0 1-.857-1.515c.239-.398.458-.908.655-1.484-1.29.001-2.52-.504-3.497-1.332-1.416-1.199-2.348-3.1-2.3-5.266.075-3.233 2.62-6.06 6.889-8.542.397-.231.669-.41.891-.557.372-.246.754-.498 1.219-.498.464 0 .847.252 1.219.498ZM10.895 5.59C6.752 7.998 5.05 10.325 5 12.448c-.035 1.56.635 2.885 1.592 3.695.955.808 2.151 1.08 3.257.661a1 1 0 0 1 1.325 1.175 18.625 18.625 0 0 1-.61 2.021h2.87a18.625 18.625 0 0 1-.61-2.021 1 1 0 0 1 1.325-1.175c1.106.42 2.302.147 3.257-.661.957-.81 1.627-2.134 1.592-3.695-.049-2.123-1.751-4.45-5.894-6.858-.528-.307-.884-.55-1.105-.694-.22.144-.577.387-1.105.694Z"/></g></svg>
